app/images/icon/icon-svg/grooming.svg

<svg width="110" height="97" viewBox="0 0 110 97" fill="none" xmlns="http://www.w3.org/2000/svg">
<path d="M54.7852 64.4532C54.0126 64.4532 53.2537 64.5112 52.51 64.6169L45.5357 49.2004L57.7014 21.8931C61.6054 13.9946 58.4592 4.33953 50.461 0.340425C49.6775 -0.0514501 48.7674 -0.107309 47.9413 0.185952C47.1155 0.479214 46.4445 1.09625 46.0836 1.89482L35.1106 26.1552L24.1353 1.89439C23.774 1.09582 23.103 0.478999 22.2774 0.185738C21.4517 -0.107524 20.5416 -0.0516648 19.7579 0.34021C11.7539 4.34232 8.61545 14 12.5179 21.8938L24.6965 49.1804L17.7512 64.5359C17.2124 64.4814 16.6661 64.4532 16.1133 64.4532C7.22842 64.4532 0 71.6817 0 80.5665C0 89.4514 7.22842 96.6798 16.1133 96.6798C24.9981 96.6798 32.2266 89.4514 32.2266 80.5665C32.2266 80.1098 32.2027 79.6588 32.1653 79.2115L35.1297 72.5576L38.6736 80.4978C38.6736 80.5208 38.6719 80.5433 38.6719 80.5665C38.6719 89.4514 45.9003 96.6798 54.7852 96.6798C63.67 96.6798 70.8984 89.4514 70.8984 80.5665C70.8984 71.6817 63.67 64.4532 54.7852 64.4532ZM18.3762 19.2059C18.3571 19.1629 18.3369 19.1203 18.3159 19.078C16.4239 15.294 17.2679 10.9606 19.8922 8.15236L31.5739 33.9749L28.2489 41.3262L18.3762 19.2059ZM16.1133 90.2345C10.7824 90.2345 6.44531 85.8974 6.44531 80.5665C6.44531 75.2356 10.7824 70.8986 16.1133 70.8986C21.4442 70.8986 25.7812 75.2356 25.7812 80.5665C25.7812 85.8974 21.4442 90.2345 16.1133 90.2345ZM28.8787 70.7505C27.5425 69.0172 25.8631 67.5625 23.9415 66.4895L50.3267 8.15257C52.9693 10.9806 53.7829 15.3176 51.9028 19.078C51.8813 19.1208 51.8609 19.1642 51.8414 19.2078L28.8787 70.7505ZM41.6221 71.2904L38.6555 64.6436L42.0256 57.0792L46.4224 66.7983C44.5307 67.9515 42.8976 69.486 41.6221 71.2904ZM54.7852 90.2345C49.4542 90.2345 45.1172 85.8974 45.1172 80.5665C45.1172 75.2356 49.4542 70.8986 54.7852 70.8986C60.1161 70.8986 64.4531 75.2356 64.4531 80.5665C64.4531 85.8974 60.1161 90.2345 54.7852 90.2345Z" fill="#FFC59E"/>
<path d="M100.332 0C97.9021 0 82.9821 0 80.9961 0C79.2163 0 77.7734 1.44289 77.7734 3.22266C77.7734 5.00242 79.2163 6.44531 80.9961 6.44531H90.6641V12.8906H80.9961C79.2163 12.8906 77.7734 14.3335 77.7734 16.1133C77.7734 17.893 79.2163 19.3359 80.9961 19.3359H90.6641V25.7812H80.9961C79.2163 25.7812 77.7734 27.2241 77.7734 29.0039C77.7734 30.7837 79.2163 32.2266 80.9961 32.2266H90.6641V38.6719H80.9961C79.2163 38.6719 77.7734 40.1148 77.7734 41.8945C77.7734 43.6743 79.2163 45.1172 80.9961 45.1172H90.6641V51.5625H80.9961C79.2163 51.5625 77.7734 53.0054 77.7734 54.7852C77.7734 56.5649 79.2163 58.0078 80.9961 58.0078H90.6641V64.4531H80.9961C79.2163 64.4531 77.7734 65.896 77.7734 67.6758C77.7734 69.4555 79.2163 70.8984 80.9961 70.8984H90.6641V77.3438H80.9961C79.2163 77.3438 77.7734 78.7866 77.7734 80.5664C77.7734 82.3462 79.2163 83.7891 80.9961 83.7891H90.6641V90.2344H80.9961C79.2163 90.2344 77.7734 91.6773 77.7734 93.457C77.7734 95.2368 79.2163 96.6797 80.9961 96.6797C82.8285 96.6797 97.6852 96.6797 100.332 96.6797C105.663 96.6797 110 92.3426 110 87.0117V9.66797C110 4.33705 105.663 0 100.332 0ZM103.555 87.0117C103.555 88.7887 102.109 90.2344 100.332 90.2344H97.1094V6.44531H100.332C102.109 6.44531 103.555 7.891 103.555 9.66797V87.0117Z" fill="#FFC59E"/>
</svg>

<svg width="110" height="97" fill="none" xmlns="http://www.w3.org/2000/svg"><path d="M54.785 64.453c-.772 0-1.531.058-2.275.164L45.536 49.2 57.7 21.893c3.904-7.898.758-17.553-7.24-21.553a3.223 3.223 0 00-4.377 1.555L35.11 26.155 24.135 1.895A3.223 3.223 0 0019.758.34C11.754 4.342 8.615 14 12.518 21.894L24.696 49.18l-6.945 15.356a16.27 16.27 0 00-1.638-.083C7.228 64.453 0 71.682 0 80.567 0 89.45 7.228 96.68 16.113 96.68s16.114-7.229 16.114-16.114c0-.456-.024-.907-.062-1.355l2.965-6.653 3.544 7.94-.002.069c0 8.884 7.228 16.113 16.113 16.113s16.113-7.229 16.113-16.114c0-8.884-7.228-16.113-16.113-16.113zM18.376 19.206a3.305 3.305 0 00-.06-.128c-1.892-3.784-1.048-8.117 1.576-10.926l11.682 25.823-3.325 7.351-9.873-22.12zm-2.263 71.028c-5.33 0-9.668-4.337-9.668-9.667 0-5.331 4.337-9.668 9.668-9.668 5.331 0 9.668 4.337 9.668 9.668 0 5.33-4.337 9.668-9.668 9.668zM28.88 70.751a16.233 16.233 0 00-4.938-4.261L50.328 8.153c2.642 2.828 3.456 7.165 1.576 10.925a3.197 3.197 0 00-.062.13L28.88 70.75zm12.743.54l-2.966-6.647 3.37-7.565 4.396 9.72a16.238 16.238 0 00-4.8 4.491zm13.163 18.944c-5.33 0-9.668-4.338-9.668-9.668 0-5.331 4.337-9.668 9.668-9.668 5.331 0 9.668 4.337 9.668 9.668 0 5.33-4.337 9.668-9.668 9.668zM100.332 0H80.996a3.223 3.223 0 000 6.445h9.668v6.446h-9.668a3.223 3.223 0 000 6.445h9.668v6.445h-9.668a3.223 3.223 0 000 6.446h9.668v6.445h-9.668a3.223 3.223 0 000 6.445h9.668v6.446h-9.668a3.223 3.223 0 000 6.445h9.668v6.445h-9.668a3.223 3.223 0 000 6.445h9.668v6.446h-9.668a3.223 3.223 0 100 6.445h9.668v6.445h-9.668a3.223 3.223 0 000 6.446h19.336c5.331 0 9.668-4.337 9.668-9.668V9.668C110 4.338 105.663 0 100.332 0zm3.223 87.012a3.227 3.227 0 01-3.223 3.222h-3.223V6.445h3.223a3.227 3.227 0 013.223 3.223v77.344z" fill="#FFC59E"/></svg>
